X: 40
T: SPITHEAD FLEET
B: "Old English Country Dances", Frank Kidson ed., William Reeves pub., London 1890
Z: 2010-9-26 John Chambers <jc:trillian.mit.edu>
N: The one-note difference in bars 6 and 14 may be a typo.
M: 6/8
L: 1/8
K: Gm
|: G/F/ |\
DGA Bcd | cAF F2A | BGA Bdg | fdB B2a |
bag fdd | fdd ecc | dg2 fdc | BGG G2 :|
|: d |\
gfg def | Bcd f2d | gfe dcB | gfe d2a |
bag fdd | fdd dcc | dg2 fdc | BGG G2 :|


%%sep 1 1 500

%%sep 1 1 500

